-----BEGIN PGP PUBLIC KEY BLOCK-----

xsFNBGqZyLEBEAC9n6DJ4/X9DTLc4Ne05wsXTHEzwszFlaqGyDoN0TAALK8t
rZ4eki5FosqQhKLb+5CItdForN6JpfboLMKs3GrnE073EDLzu4JzBvNlDhMX
GmT6xkuCl1CrA5A9LyDg/orCXNlG/roMvh79LtS0op1nHzexlPCo1C5FAFTf
hWyCiLWDawzpoo75YmAeTS9ZnXw+Z7/LKS6/wTKyEBPojcObi38vANWkT6FB
W6T0K+INTE6xzef67t1A+LFK3rGj5OHy+RI8GeipxvjUw2cEec15eA6HoyA4
P2hCwdox+2CM/KT3iY0Zrs3UGx9OaRaTPT9PQkJr0+0SEXs+AD3RcOdmaUtN
rVqHV2vpuM0+kdzEZqjRKO8ZG2Q/uzpETlaOpcogv89fqacH6cu6abgkYX6A
0H8QKOSN96DRO6YSYzlUgLjtCI5c4vrzL58ZxaC14vHhc8Z+7oIOIbKOjMPw
3f4opco0ryGYn6MIMm3nVBPhpAsJnet/iKR/YLgL7ttIusuHxlXBkXBvL3sx
qQG7PoSIrXS9G1VhlKH4+9I6r2yyZ6e8ixtNvibE0dQAj/7OwQDwHVaknBZ8
DzEq0fgUl9//eQ8t0BGfugrAhhXqZ/x6rSq7/mhf2XW316sA35l6LjMVYWU6
yvpf+j8q5Rog1oKZQqiyyw3kt2QKx7zZfZO59QARAQABzS1QYXRyaWsgQW5k
ZXJzc29uIDxwYXRyaWtAcHJpdmEtaW5ub3ZhdGlvbi5ldT7CwYoEEAEIAD4F
gmqZyLEECwkHCAmQPrZ4yesuycwDFQgKBBYAAgECGQECmwMCHgEWIQSuMrF4
qrAZGQyAW04+tnjJ6y7JzAAAFnYP/iH45nnhOQwMEZO2VAGv4au05YC/dG0f
4bmZv/f1CEE10wSA0n3VrSvSv4omVO907vsm7WCP1m5zlN4ivcv3XAZ793Hs
/qJfxIk6T9qnqOsGtmYYeipmsRRdJRaF+JGZIm1z24Hi1nKYXcS0oj7Y6IxI
lrNrug2iwaYpKLZnioDR3ZzfAcLlSWmRLxqY1U75quF8ljV8+HtCqvKZ/CT/
a8szdcEXwWGhmSq4EZHq6uVpo1O0hGoZBdEEfJ9NTRYF9xFxxmdQvQjyFpRT
Ed+kuQ/h5RFM8WB0HWuI3sUMyvytQyboxfUeX6VeoaIUoLxFq5Yq24SSirxN
0INJPI4T4AjEgOwJTxHxBnc8JM+I7nXsMVe1qVwxC3BmPJqUc59tE3WTIYSW
4g1S+7zJAemY4vqwti/YazgmdQ0bkWltnZpgiXJ7J2DFschYfm9pkouKAdKl
pwIO8H9SkfqXit0Kx8eQSpnNuG/isMU+VK8L1k5jpfT0JaXTden4JV2k72D7
9jZ1iPFBehNRJ/GbPHoxFz72wvrIeEEgxKlPHF07PKFOXBhobfav8I07xmYR
BFyDmawht3IhFMqr4FNxm7Ni5QBdsOT4ZcNJ/Y1zjymPZo2I0DCqvH0sSohq
V9wH9H5ZF7K9z5GBytMXaldqUhocqfLVzPoiE5pXwjAKUkj9hT6nzsFNBGqZ
yLEBEADU/wHsS6wNfZ8MPNoUDwQHM6yJJyaFP6oNcMNBIuF/arkHO4c76jgl
VLnJEsTAEt+EeKdU1c7TFsYf6FIuZ2c+sADtFx2/0Q9HRxQzcasyU/4F6OV9
1Luf1WWZhbQ2nqJ7wYYR0Cgr3GIQWAkD2G3gPkbglaBU2eEmGu15YXeJNKUO
nH1So0v1Y/AlEJnDTWe8v3RxizoBnOsoBswVgT/bX+To/QlHNn4gsDfSDKgY
kttFpX+QrxXPm4vBQuPiOYCBwIdk/TzPy1ojJY67/d1mdBULOeRTsDsr43P7
4e3cJZZqvPlzYc4PYQ7KGxVeK9JaMJVyJzVGsiKn0uxS3e2hjfYhsQLjQyOO
iujiLkp0r9l9BocxdK9/a6Cttei3SW05fyACSq7ea+N0tEPKs010Oqf/FBTR
qClfwL3nmnYVjnxu/uiiQLwp4T0hot0cp6u3XlhjZs3VsdahDOU3+hIAZqNL
IBvBf0iHZGZ5n3mwep0LsHFgaIfedsG0QVDrJfSkUZWQn4PvEaZ/Lp6OQn2S
w5KdmRACPvREIc4WihBLsiADzCatFZBDarzVpcffDHY3WonlpQK/N6aF+FTi
+lycvKqEQv+Zp7h6BUfWkOcyZumXi20qKKjrgjXQMDKC/8RuXHVSsM7po+F5
XHaNwazTAbZertVyLjcnnaLdWl54sQARAQABwsF2BBgBCAAqBYJqmcixCZA+
tnjJ6y7JzAKbDBYhBK4ysXiqsBkZDIBbTj62eMnrLsnMAABPcQ//dnAob/ne
sheFrZShjM3hED9IuQWKtRrr36jlyLEqE3II4Lk2t0MLb7iISHYvmZpcryCQ
3/xgXdzjOmjw2kSoXg+yjSV9X5oFeryn4ipocb15+eUIDMMD6d7oSORt0NRW
25bJSzIbCBmmuSUBpcSQKWIlqPZij3VCFd9ap7mQFyIQ9ygpGT6hXqeNyypS
OMo/NYA+TAzHbP3xZLCIfG2fISy26ziIuksqSzn2dUe1SYYzlfLwRuVHAoAZ
7Bk+LipXCTdvuMKoHv5ITTpS9zQgtYiegk5X6ZUb29RKmMffsXPcDODH3M+3
TKpP4d0xsCSE1GJ4J8UNm6ZPXXGvCBCdxQpoAUyV9gdRnJPYcv5LfGZxzvpI
07wYE1CZXG6GLh9k0omECKS63SWWuToWNw9UroINH+cSKK4xnxBI48byq123
7N38tRKnNbQiLkbffD4kWfeG0DeF5Qk+eO+czUirAcdMg5ixo7Y8aLJpGmOo
D9bcEMyQLU3ro6JJxjWExuH60m3x8UPE/tCAnS++lNvuM06vYMQW1tWOESte
1XQvFrOUZvSv0uFtkqhMziw1e29eT67T2SjAR7sHSs+PLpT04zDHYKpRLrbP
mjOfS4gsKbQhMDLFBcGd0g5ccXjTacWVgbjzZZwZTyqkP60XOis0gmBX2EG7
CxFhBMbnN0SIzSQ=
=0e/p
-----END PGP PUBLIC KEY BLOCK-----